X:1
T:Both Sides the Tweed
M:3/4
L:1/4
C:Dick Gaughan
K:F
D/2E/2 | F E D | F G A | d3- | d2 d/2A/2 | c/4 A3/4- A3/2 G/2 |
F G A | C3- | C2 D/2E/2 | F E D | F G A | d3- | d2 d | c A F |
G/2 E3/2 C | D3- | D2 A/2c/2 | d e d | d c A | c3- | c2 d/2c/2 |
A3/2 F/2 A | (G/2F/2) (D/2C/2) A, | C3- | C2 D/2E/2 | F E D |
F G A | d3- | d2 d | c A F | G E3/2 C/2 | D3- | D2 z |]
